svg/logo/openai_line.svg

<?xml version="1.0" encoding="UTF-8"?>
<svg width="24px" height="24px" viewBox="0 0 24 24" version="1.1" xmlns="http://www.w3.org/2000/svg" xmlns:xlink="http://www.w3.org/1999/xlink">
    <title>openai_line</title>
    <g id="Icon" stroke="none" stroke-width="1" fill="none" fill-rule="evenodd">
        <g id="Logo" transform="translate(-528.000000, -192.000000)">
            <g id="openai_line" transform="translate(528.000000, 192.000000)">
                <path d="M24,0 L24,24 L0,24 L0,0 L24,0 Z M12.5935,23.2578 L12.5819,23.2595 L12.5109,23.295 L12.4919,23.2987 L12.4767,23.295 L12.4057,23.2595 C12.3958,23.2564 12.387,23.259 12.3821,23.2649 L12.378,23.2758 L12.3609,23.7031 L12.3659,23.7235 L12.3769,23.7357 L12.4805,23.8097 L12.4953,23.8136 L12.5071,23.8097 L12.6107,23.7357 L12.6233,23.7197 L12.6267,23.7031 L12.6096,23.2758 C12.6076,23.2657 12.601,23.2593 12.5935,23.2578 Z M12.8584,23.1453 L12.8445,23.1473 L12.6598,23.2397 L12.6499,23.2499 L12.6472,23.2611 L12.6651,23.6906 L12.6699,23.7034 L12.6784,23.7105 L12.8793,23.8032 C12.8914,23.8069 12.9022,23.803 12.9078,23.7952 L12.9118,23.7812 L12.8777,23.1665 C12.8753,23.1546 12.8674,23.147 12.8584,23.1453 Z M12.143,23.1473 C12.1332,23.1424 12.1222,23.1453 12.1156,23.1526 L12.1099,23.1665 L12.0758,23.7812 C12.0751,23.7927 12.0828,23.8019 12.0926,23.8046 L12.1083,23.8032 L12.3092,23.7105 L12.3186,23.7024 L12.3225,23.6906 L12.3404,23.2611 L12.3372,23.2485 L12.3278,23.2397 L12.143,23.1473 Z" id="MingCute" fill-rule="nonzero"></path>
                <path d="M10,2 C11.4771429,2 12.7662585,2.80010884 13.4590973,3.99056517 L13.5585,4.17201 L14.1961,3.8039 C16.1093,2.69933 18.5556,3.35483 19.6602,5.268 C20.396925,6.543983 20.350641,8.05603293 19.6710457,9.24987399 L19.5585,9.43565 L20.1964,9.8039 C22.1095,10.9085 22.765,13.3548 21.6605,15.268 C20.923775,16.54404 19.5911292,17.2599885 18.2173701,17.268377 L18.0002,17.2638 L18.0002,18 C18.0002,20.2091 16.2094,22 14.0002,22 C12.5230571,22 11.2339415,21.1998186 10.5411027,20.0093467 L10.4417,19.8279 L9.80389,20.1961 C7.89072,21.3007 5.44436,20.6452 4.33979,18.732 C3.603084,17.45596 3.64933285,15.9439163 4.32897605,14.7499902 L4.44153,14.5642 L3.80389,14.1961 C1.89072,13.0915 1.23522,10.6452 2.33979,8.732 C3.076496,7.455998 4.40912275,6.73999725 5.78283717,6.7316463 L6,6.73623 L6,6 C6,3.79086 7.79086,2 10,2 Z M14.7022,12.7873 L14.6339,16.8469 C14.6287375,17.1542 14.4827766,17.43945 14.2425768,17.6235992 L14.134,17.6961 L12.1777,18.8256 C12.4921,19.5182 13.1905,20 14.0002,20 C15.0545909,20 15.9183678,19.18415 15.9947144,18.1492661 L16.0002,18 L16.0002,13.5662 L14.7022,12.7873 Z M12.6691,14.7338 L9.11938,16.7044 L9.00134311,16.7601979 C8.76006236,16.8555193 8.49074592,16.853226 8.25110205,16.7538662 L8.13402,16.6961 L6.1776,15.5666 L6.08853046,15.7024778 C5.72771673,16.305177 5.69592643,17.0808857 6.07184,17.732 C6.59782095,18.6430476 7.73233705,18.9836644 8.66552327,18.5370271 L8.80389,18.4641 L12.6437,16.2471 L12.6691,14.7338 Z M15.3566,9.31904 L14.0333,10.0536 L17.5147,12.1425 L17.6220674,12.2168176 C17.8252998,12.378098 17.9579455,12.6124613 17.9916967,12.8697043 L18.0002,13 L18.0002,15.2591 L18.162423,15.2683097 C18.8648408,15.2794796 19.5525143,14.9191143 19.9284,14.268 C20.4544,13.3569524 20.1821234,12.2040907 19.3287388,11.6192627 L19.1964,11.5359 L15.3566,9.31904 Z M6,8.74087 C5.2431,8.66685 4.47666,9.03083 4.07184,9.732 C3.54584952,10.6430476 3.81809034,11.7959093 4.67154053,12.3807373 L4.80389,12.4641 L8.64368,14.681 L9.96696,13.9464 L6.48551,11.8575 C6.22195125,11.6993875 6.04790172,11.4304125 6.00850744,11.1302957 L6,11 L6,8.74087 Z M12.0142,11.1745 L11.292,11.5754 L11.2781,12.4007 L11.9861,12.8255 L12.708,12.4247 L12.7219,11.5992 L12.0142,11.1745 Z M10,4 C8.94563773,4 8.08183483,4.81587733 8.00548573,5.85073759 L8,6 L8,10.4338 L9.29784,11.2125 L9.36613,7.1531 L9.37682822,7.02297883 C9.41491756,6.76636211 9.55153791,6.53426195 9.75741537,6.37640898 L9.86599,6.3039 L11.8225,5.17433 L11.7545808,5.03871231 C11.4144853,4.41969262 10.75572,4 10,4 Z M17.9282,6.268 C17.4022,5.3569619 16.2676739,5.01630023 15.3344695,5.46301097 L15.1961,5.53595 L11.3563,7.75285 L11.3309,9.26635 L14.8809,7.29561 C15.1496125,7.14643125 15.4695453,7.13018797 15.7491201,7.24612314 L15.8662,7.3039 L17.8225,8.43333 C18.265,7.81485 18.333,6.96915 17.9282,6.268 Z" id="形状" fill="#09244B"></path>
            </g>
        </g>
    </g>
</svg>

<svg xmlns="http://www.w3.org/2000/svg" width="24" height="24"><g fill="none" fill-rule="evenodd"><path d="M24 0v24H0V0h24ZM12.594 23.258l-.012.002-.071.035-.02.004-.014-.004-.071-.036c-.01-.003-.019 0-.024.006l-.004.01-.017.428.005.02.01.013.104.074.015.004.012-.004.104-.074.012-.016.004-.017-.017-.427c-.002-.01-.009-.017-.016-.018Zm.264-.113-.014.002-.184.093-.01.01-.003.011.018.43.005.012.008.008.201.092c.012.004.023 0 .029-.008l.004-.014-.034-.614c-.003-.012-.01-.02-.02-.022Zm-.715.002a.023.023 0 0 0-.027.006l-.006.014-.034.614c0 .012.007.02.017.024l.015-.002.201-.093.01-.008.003-.011.018-.43-.003-.012-.01-.01-.184-.092Z"/><path fill="#09244B" d="M10 2c1.477 0 2.766.8 3.46 1.99l.098.182.638-.368a4 4 0 0 1 5.475 5.446l-.113.186.638.368a4 4 0 0 1-1.979 7.464L18 17.264V18a4 4 0 0 1-7.459 2.01l-.1-.182-.637.368a4 4 0 0 1-5.475-5.446l.113-.186-.638-.368a4 4 0 0 1 1.979-7.464L6 6.736V6a4 4 0 0 1 4-4Zm4.702 10.787-.068 4.06a1 1 0 0 1-.391.777l-.109.072-1.956 1.13a2.002 2.002 0 0 0 3.817-.677L16 18v-4.434l-1.298-.779Zm-2.033 1.947-3.55 1.97-.118.056a1 1 0 0 1-.75-.006l-.117-.058-1.956-1.13-.09.136a2 2 0 0 0 2.578 2.835l.138-.073 3.84-2.217.025-1.513Zm2.688-5.415-1.324.735 3.482 2.089.107.074a1 1 0 0 1 .37.653L18 13v2.26l.162.008a2 2 0 0 0 1.167-3.649l-.133-.083-3.84-2.217ZM6 8.741a2.001 2.001 0 0 0-1.328 3.64l.132.083 3.84 2.217 1.323-.735-3.481-2.088a1 1 0 0 1-.477-.728L6 11V8.74Zm6.014 2.434-.722.4-.014.826.708.425.722-.401.014-.826-.708-.425ZM10 4a2 2 0 0 0-1.995 1.85L8 6v4.434l1.298.779.068-4.06.01-.13a1 1 0 0 1 .381-.647l.109-.072 1.957-1.13-.068-.135A2 2 0 0 0 10 4Zm7.928 2.268a2 2 0 0 0-2.594-.805l-.138.073-3.84 2.217-.025 1.513 3.55-1.97a1 1 0 0 1 .868-.05l.117.058 1.957 1.13c.442-.62.51-1.465.105-2.166Z"/></g></svg>
